X:143
T: Nun laube, Lindlein, laube
N: A0175
O: Europa, Mitteleuropa, Deutschland
N: In Trillers Singbuch 1555 zu einem geistlichen Text.
R: Romanze, Ballade, Lied
M: 4/2
L: 1/2
K: G
c2GA | cBA2 | G2z
d | edcB | A2G2 |
zA_BA | G_BG2 | =F2z
A | cAGA | G4

@@@ Tune index: 143
